img/icons/phone.svg

<svg width="23" height="24" viewBox="0 0 23 24" fill="none" xmlns="http://www.w3.org/2000/svg">
<path fill-rule="evenodd" clip-rule="evenodd" d="M7.75688 2.00536C7.72175 2.00579 7.65634 2.01293 7.54957 2.0446L7.54105 2.04713C6.74912 2.27433 6.16462 2.63528 5.71097 3.27524L5.70491 3.2838L5.69866 3.29222C5.16258 4.01543 4.9358 4.94668 5.0069 5.95419L5.00702 5.95579C5.04947 6.57121 5.13553 7.24202 5.31258 7.8892C6.53751 12.1043 8.56704 15.8293 11.3776 19.0324C11.9546 19.6825 12.6957 20.2569 13.4556 20.7022L13.4607 20.7053C14.4943 21.3193 16.0209 21.0569 16.9924 19.9981L16.9998 19.9901C17.2433 19.7305 17.2405 19.6164 17.2395 19.5874C17.2372 19.5231 17.1969 19.3059 16.8257 18.8665C16.5487 18.5493 16.2549 18.2507 15.9363 17.9273L15.927 17.9178C15.6195 17.6057 15.2883 17.2696 14.9694 16.905C14.5806 16.4885 14.2949 16.3067 14.0735 16.2408C13.8917 16.1867 13.6433 16.1772 13.2302 16.384C12.878 16.5654 12.4912 16.6935 12.0757 16.6888C11.6381 16.6838 11.2639 16.5329 10.9528 16.3131C10.6613 16.1073 10.4243 15.8406 10.2273 15.5893C10.0357 15.345 9.84019 15.0597 9.64631 14.7768L9.62083 14.7396L9.61645 14.733C8.877 13.6172 8.45002 12.7318 8.18817 12.1889C8.15478 12.1196 8.12407 12.0559 8.09574 11.998C7.69846 11.2178 7.32376 10.4273 7.28877 9.64397C7.24822 8.736 7.6519 8.01878 8.30905 7.36802C8.42406 7.2456 8.56816 7.02699 8.6769 6.76698C8.78766 6.50217 8.81607 6.30435 8.8117 6.21353C8.70061 5.32088 8.47076 4.50245 8.22161 3.61529C8.10182 3.18872 7.97756 2.74627 7.85989 2.27203C7.81983 2.11911 7.77986 2.04102 7.75688 2.00536ZM8.75755 0.269407C9.34021 0.615106 9.63921 1.20553 9.79053 1.78891L9.7933 1.79956C9.87978 2.14847 9.98454 2.52296 10.0943 2.91497C10.3646 3.88079 10.6648 4.95312 10.794 6.01223L10.7961 6.02936L10.7976 6.04654C10.8445 6.58281 10.6968 7.12922 10.5164 7.56046C10.3315 8.00257 10.0611 8.44562 9.74244 8.77717L9.73303 8.78696L9.72336 8.79648C9.29736 9.21588 9.27431 9.42267 9.28108 9.57421C9.29355 9.85345 9.44363 10.2633 9.87244 11.1051L9.87599 11.1121L9.87944 11.1191C9.91145 11.1844 9.94517 11.2543 9.98105 11.3286C10.2399 11.8645 10.6112 12.6336 11.2682 13.6258C11.4789 13.9333 11.64 14.1679 11.7885 14.3573C11.9395 14.5499 12.0335 14.6373 12.0878 14.6756C12.0905 14.6775 12.0929 14.6792 12.095 14.6806C12.1248 14.6748 12.1928 14.656 12.3097 14.5955L12.3194 14.5905C13.0847 14.2055 13.8559 14.0901 14.6217 14.3181C15.3466 14.5338 15.9336 15.0198 16.4304 15.5545L16.4413 15.5662L16.4518 15.5783C16.7302 15.8975 17.0255 16.1977 17.346 16.523L17.3553 16.5325C17.6664 16.8482 18.0017 17.1886 18.324 17.5581L18.3288 17.5636L18.3335 17.5691C18.8308 18.1559 19.2069 18.8071 19.2325 19.5368C19.2594 20.2998 18.8978 20.9031 18.4606 21.3703C16.9741 22.9868 14.4463 23.608 12.462 22.4311C11.5565 21.9001 10.6384 21.1969 9.89354 20.357L9.89008 20.3531C6.87494 16.9176 4.7022 12.923 3.39653 8.4261L3.39448 8.41901L3.39252 8.4119C3.1662 7.58786 3.06549 6.77027 3.01749 6.07443C2.92007 4.68959 3.22317 3.26468 4.08919 2.0915C4.85385 1.0172 5.85395 0.440566 6.97199 0.119105C7.52144 -0.0430759 8.16859 -0.0800259 8.75755 0.269407Z" fill="#0AD9C6"/>
</svg>

<svg width="23" height="24" fill="none" xmlns="http://www.w3.org/2000/svg"><path fill-rule="evenodd" clip-rule="evenodd" d="M7.757 2.005c-.035 0-.1.008-.207.04l-.009.002c-.792.227-1.376.588-1.83 1.228l-.006.009-.006.008c-.536.723-.763 1.655-.692 2.662v.002c.042.615.129 1.286.306 1.933 1.225 4.215 3.254 7.94 6.065 11.143.577.65 1.318 1.225 2.078 1.67l.005.003c1.033.614 2.56.352 3.531-.707L17 19.99c.243-.26.24-.374.24-.403-.003-.064-.043-.281-.414-.72-.277-.318-.571-.616-.89-.94l-.009-.01c-.307-.311-.639-.647-.958-1.012-.388-.417-.674-.598-.896-.664-.181-.054-.43-.064-.843.143-.352.181-.739.31-1.154.305a1.96 1.96 0 01-1.123-.376 3.554 3.554 0 01-.726-.724c-.191-.244-.387-.53-.58-.812l-.026-.037-.005-.007c-.739-1.116-1.166-2.001-1.428-2.544l-.092-.191c-.398-.78-.772-1.57-.807-2.354-.04-.908.363-1.625 1.02-2.276.115-.122.26-.341.368-.601.11-.265.14-.463.135-.553-.111-.893-.341-1.712-.59-2.599-.12-.426-.244-.869-.362-1.343a.946.946 0 00-.103-.267zm1-1.736c.583.346.882.937 1.034 1.52l.002.01c.087.35.192.724.301 1.116.27.966.57 2.038.7 3.097l.002.017.002.018c.046.536-.101 1.082-.282 1.513a4.057 4.057 0 01-.774 1.217l-.009.01-.01.01c-.426.419-.449.626-.442.777.013.28.163.69.591 1.531l.004.007.003.007.102.21c.259.535.63 1.305 1.287 2.297.21.307.372.542.52.731.152.193.245.28.3.319l.007.005a.85.85 0 00.215-.085l.01-.005c.765-.385 1.536-.5 2.302-.273.725.216 1.312.702 1.808 1.237l.011.011.01.012c.28.32.575.62.895.945l.01.01c.31.315.646.656.968 1.025l.005.006.005.005c.497.587.873 1.238.899 1.968.026.763-.335 1.366-.772 1.833-1.487 1.617-4.015 2.238-5.999 1.061-.905-.53-1.824-1.234-2.568-2.074l-.004-.004c-3.015-3.435-5.188-7.43-6.493-11.927l-.003-.007-.001-.007a11.994 11.994 0 01-.376-2.338c-.097-1.384.206-2.81 1.072-3.982C4.854 1.016 5.854.44 6.972.118c.55-.162 1.197-.199 1.786.15z" fill="#0AD9C6"/></svg>
